images/social/behance-2.svg

<svg height="30" viewBox="0 0 30 30" width="30" xmlns="http://www.w3.org/2000/svg"><g fill="#fff" fill-rule="evenodd" transform="translate(5 8)"><path d="m10.1358696 10.0542702c0 1.0658438-.44157171 1.9403692-1.3247283 2.6236025-.88315659.6832332-2.16711114 1.0248447-3.85190217 1.0248447h-3.70923913c-.58424205 0-.8763587-.2937859-.8763587-.8813665v-11.43726705c0-.58758058.29211665-.88136646.8763587-.88136646h4.6263587c1.10054898 0 1.97689891.25962473 2.62907608.77888199.76087337.62857457 1.14130435 1.46210661 1.14130435 2.50062112 0 1.5031131-.69292785 2.52794757-2.07880435 3.07453416.78804742.21863463 1.3654873.55341389 1.73233696 1.00434782.557068.66956857.83559786 1.40061716.83559786 2.19316772zm-1.97690221-6.2720497c0-.60124525-.21738913-1.07950133-.65217391-1.43478261-.29891454-.2322993-.71331257-.34844721-1.24320652-.34844721h-4.03532609c-.23097942 0-.34646739.10931568-.34646739.32795031v3.81242236h3.28125c.80163444 0 1.48097547-.1844702 2.03804348-.55341615.63859015-.43726926.95788043-1.03850549.95788043-1.8037267zm.48913044 6.2310559c0-.64223924-.29891006-1.20931431-.89673913-1.70124224-.57065503-.45093393-1.43341814-.67639751-2.58831522-.67639751h-3.28125v4.26335405c0 .2186346.11548797.3279503.34646739.3279503h3.30163043c.84239552 0 1.53532337-.1708058 2.07880435-.5124224.69293825-.4236046 1.03940218-.9906796 1.03940218-1.7012422z"/><path d="m19.7826087 8.7444206c0 .47639723-.3057035.71459228-.9171196.71459228h-5.9918478c.0679351.81116282.3396715 1.46780862.8152174 1.96995712.5027199.5407752 1.1548873.8111588 1.9565217.8111588.6385902 0 1.1752696-.1866935 1.6100544-.5600859.2581534-.2188852.5570635-.6115851.8967391-1.1781116.1358703-.2317608.3532594-.3476395.6521739-.3476395.1902184 0 .3600536.0836902.5095109.251073.1630443.1545072.2445652.3412006.2445652.5600858 0 .3605169-.2581496.8304692-.7744565 1.4098713-.7608734.8497896-1.8206454 1.2746781-3.1793478 1.2746781-1.3451155 0-2.4116809-.457077-3.1997283-1.3712446-.7336993-.8497897-1.1005435-1.9248862-1.1005435-3.22532192 0-1.17167968.4076046-2.2017123 1.2228261-3.09012876.8288085-.87554086 1.8546135-1.31330472 3.0774457-1.31330472 1.2500062 0 2.2690178.42488845 3.0570652 1.27467811.7472863.81116286 1.1209239 1.75106762 1.1209239 2.81974249zm-1.548913-.57939914c0-.50214843-.2513562-1.00428934-.7540761-1.50643777-.4211978-.41201923-1.0461915-.61802575-1.875-.61802575-.6521772 0-1.2092369.19956882-1.6711957.59871245-.4755458.38626802-.7948361.89484663-.9578804 1.52575107h5.15625c.0815221.0128756.1154892.0128756.1019022 0z"/></g></svg>

<?xml version="1.0" encoding="UTF-8"?>
<svg width="30px" height="30px" viewBox="0 0 30 30" version="1.1" xmlns="http://www.w3.org/2000/svg" xmlns:xlink="http://www.w3.org/1999/xlink">
    <!-- Generator: Sketch 53.1 (72631) - https://sketchapp.com -->
    <title>投资组合/behance@2x</title>
    <desc>Created with Sketch.</desc>
    <g id="投资组合/behance" stroke="none" stroke-width="1" fill="none" fill-rule="evenodd">
        <g id="Group" transform="translate(5.000000, 8.000000)" fill="#FFFFFF">
            <path d="M10.1358696,10.0542702 C10.1358696,11.120114 9.69429789,11.9946394 8.8111413,12.6778727 C7.92798471,13.3611059 6.64403016,13.7027174 4.95923913,13.7027174 L1.25,13.7027174 C0.665757948,13.7027174 0.373641304,13.4089315 0.373641304,12.8213509 L0.373641304,1.38408385 C0.373641304,0.796503273 0.665757948,0.502717391 1.25,0.502717391 L5.8763587,0.502717391 C6.97690768,0.502717391 7.85325761,0.762342124 8.50543478,1.28159938 C9.26630815,1.91017395 9.64673913,2.74370599 9.64673913,3.7822205 C9.64673913,5.2853336 8.95381128,6.31016807 7.56793478,6.85675466 C8.3559822,7.07538929 8.93342208,7.41016855 9.30027174,7.86110248 C9.85733974,8.53067105 10.1358696,9.26171964 10.1358696,10.0542702 Z M8.15896739,3.7822205 C8.15896739,3.18097525 7.94157826,2.70271917 7.50679348,2.34743789 C7.20787894,2.11513859 6.79348091,1.99899068 6.26358696,1.99899068 L2.22826087,1.99899068 C1.99728145,1.99899068 1.88179348,2.10830636 1.88179348,2.32694099 L1.88179348,6.13936335 L5.16304348,6.13936335 C5.96467792,6.13936335 6.64401895,5.95489315 7.20108696,5.5859472 C7.83967711,5.14867794 8.15896739,4.54744171 8.15896739,3.7822205 Z M8.64809783,10.0132764 C8.64809783,9.37103716 8.34918777,8.80396209 7.7513587,8.31203416 C7.18070367,7.86110023 6.31794056,7.63563665 5.16304348,7.63563665 L1.88179348,7.63563665 L1.88179348,11.8989907 C1.88179348,12.1176253 1.99728145,12.226941 2.22826087,12.226941 L5.5298913,12.226941 C6.37228682,12.226941 7.06521467,12.0561352 7.60869565,11.7145186 C8.3016339,11.290914 8.64809783,10.723839 8.64809783,10.0132764 Z" id="Be"></path>
            <path d="M19.7826087,8.7444206 C19.7826087,9.22081783 19.4769052,9.45901288 18.8654891,9.45901288 L12.8736413,9.45901288 C12.9415764,10.2701757 13.2133128,10.9268215 13.6888587,11.42897 C14.1915786,11.9697452 14.843746,12.2401288 15.6453804,12.2401288 C16.2839706,12.2401288 16.82065,12.0534353 17.2554348,11.6800429 C17.5135882,11.4611577 17.8124983,11.0684578 18.1521739,10.5019313 C18.2880442,10.2701705 18.5054333,10.1542918 18.8043478,10.1542918 C18.9945662,10.1542918 19.1644014,10.237982 19.3138587,10.4053648 C19.476903,10.559872 19.5584239,10.7465654 19.5584239,10.9654506 C19.5584239,11.3259675 19.3002743,11.7959198 18.7839674,12.3753219 C18.023094,13.2251115 16.963322,13.65 15.6046196,13.65 C14.2595041,13.65 13.1929387,13.192923 12.4048913,12.2787554 C11.671192,11.4289657 11.3043478,10.3538692 11.3043478,9.05343348 C11.3043478,7.8817538 11.7119524,6.85172118 12.5271739,5.96330472 C13.3559824,5.08776386 14.3817874,4.65 15.6046196,4.65 C16.8546258,4.65 17.8736374,5.07488845 18.6616848,5.92467811 C19.4089711,6.73584097 19.7826087,7.67574573 19.7826087,8.7444206 Z M18.2336957,8.16502146 C18.2336957,7.66287303 17.9823395,7.16073212 17.4796196,6.65858369 C17.0584218,6.24656446 16.4334281,6.04055794 15.6046196,6.04055794 C14.9524424,6.04055794 14.3953827,6.24012676 13.9334239,6.63927039 C13.4578781,7.02553841 13.1385878,7.53411702 12.9755435,8.16502146 L18.1317935,8.16502146 C18.2133156,8.17789706 18.2472827,8.17789706 18.2336957,8.16502146 Z" id="Combined-Shape"></path>
        </g>
    </g>
</svg>
